dist/img/svg/telegram.svg

<svg width="18" height="15" viewBox="0 0 18 15" fill="none" xmlns="http://www.w3.org/2000/svg">
<path d="M0.266152 6.93325C2.06975 5.91911 4.08306 5.07265 5.96419 4.22189C9.20045 2.82841 12.4496 1.45908 15.7315 0.184242C16.37 -0.0329636 17.5174 -0.245352 17.6299 0.720608C17.5682 2.08797 17.3148 3.44733 17.1411 4.80669C16.6998 7.79604 16.1899 10.7751 15.6927 13.7547C15.5213 14.7472 14.3035 15.2609 13.5242 14.6258C11.6514 13.3344 9.76422 12.0556 7.91536 10.7343C7.30973 10.1061 7.87135 9.20394 8.41223 8.75533C9.9547 7.20356 11.5905 5.88515 13.0524 4.25319C13.4467 3.28114 12.2816 4.10035 11.8973 4.35138C9.7856 5.83687 7.72563 7.41305 5.4993 8.71859C4.36208 9.35763 3.03663 8.81153 1.89993 8.45495C0.880762 8.02417 -0.612634 7.59005 0.266152 6.93325Z" fill="currentColor"/>
</svg>

<svg width="18" height="15" viewBox="0 0 18 15" fill="none" xmlns="http://www.w3.org/2000/svg"><path d="M.266 6.933C2.07 5.92 4.083 5.073 5.964 4.222 9.2 2.828 12.45 1.459 15.732.184c.638-.217 1.785-.43 1.898.537-.062 1.367-.315 2.726-.489 4.086-.441 2.989-.951 5.968-1.448 8.948-.172.992-1.39 1.506-2.169.87-1.873-1.29-3.76-2.57-5.609-3.89-.605-.629-.044-1.531.497-1.98 1.543-1.551 3.178-2.87 4.64-4.502.395-.972-.77-.153-1.155.098C9.786 5.837 7.726 7.413 5.5 8.72c-1.137.639-2.462.093-3.6-.264C.882 8.025-.612 7.59.267 6.933z" fill="currentColor"/></svg>
